X: 23809
T: Little Katie Kearney
R: reel
M: 4/4
K: Amixolydian
ed|:c/A3/2AG E/A3/2AB|c/A3/2Ae a^gae|c/A3/2AG E/A3/2Ac|BAGB dged:|
~=c2c2 gedB|=cBAg aged|=c2 cd efge|dBGB dged|
~=c2c2 gedB|=cBAg a2 ga|(3bag (3agf gage|dBGB (3fga ed|

